packages/web/src/assets/networks/binance.svg

<svg fill="none" height="20" viewBox="0 0 20 20" width="20" xmlns="http://www.w3.org/2000/svg" xmlns:xlink="http://www.w3.org/1999/xlink"><clipPath id="a"><path d="m0 0h20v20h-20z"/></clipPath><g clip-path="url(#a)"><path d="m0 10c0 2.6522 1.05357 5.1957 2.92893 7.0711 1.87537 1.8753 4.41891 2.9289 7.07107 2.9289 2.6522 0 5.1957-1.0536 7.0711-2.9289 1.8753-1.8754 2.9289-4.4189 2.9289-7.0711 0-2.65216-1.0536-5.1957-2.9289-7.07107-1.8754-1.87536-4.4189-2.92893-7.0711-2.92893-2.65216 0-5.1957 1.05357-7.07107 2.92893-1.87536 1.87537-2.92893 4.41891-2.92893 7.07107z" fill="#f3ba2f"/><g fill="#fff"><path d="m7.41044 8.45477 2.58966-2.59073 2.5918 2.59176 1.5072-1.50722-4.099-4.09897-4.09688 4.09794zm-4.07939 1.06391 1.50722-1.50721 1.50722 1.50721-1.50722 1.50722zm4.07939 1.06392 2.58966 2.5907 2.5918-2.5917 1.5082 1.5062-.001.001-4.099 4.0979-4.09688-4.0969-.00206-.002zm6.24436-1.06289 1.5072-1.50721 1.5072 1.50721-1.5072 1.50719z"/><path d="m11.5285 9.51764-1.52888-1.52887-1.12989 1.1299-.1299.12989-.26804.26804-.00206.00207.00206.00206 1.52783 1.52787 1.52888-1.5289.001-.00103z"/></g></g></svg>

<svg width="20" height="20" viewBox="0 0 20 20" fill="none" xmlns="http://www.w3.org/2000/svg">
<g clip-path="url(#clip0_8909_56018)">
<path d="M0 10C0 12.6522 1.05357 15.1957 2.92893 17.0711C4.8043 18.9464 7.34784 20 10 20C12.6522 20 15.1957 18.9464 17.0711 17.0711C18.9464 15.1957 20 12.6522 20 10C20 7.34784 18.9464 4.8043 17.0711 2.92893C15.1957 1.05357 12.6522 0 10 0C7.34784 0 4.8043 1.05357 2.92893 2.92893C1.05357 4.8043 0 7.34784 0 10H0Z" fill="#EBBA4E"/>
<path d="M7.41044 8.45452L10.0001 5.8638L12.5919 8.45555L14.0991 6.94834L10.0001 2.84937L5.90322 6.9473L7.41044 8.45452ZM3.33105 9.51844L4.83827 8.01122L6.34549 9.51844L4.83827 11.0257L3.33105 9.51844ZM7.41044 10.5824L10.0001 13.1731L12.5919 10.5813L14.1001 12.0875L14.0991 12.0885L10.0001 16.1865L5.90322 12.0896L5.90116 12.0875L7.41044 10.5824ZM13.6548 9.51947L15.162 8.01225L16.6692 9.51947L15.162 11.0267L13.6548 9.51947Z" fill="white"/>
<path d="M11.5285 9.51764L9.99962 7.98877L8.86973 9.11867L8.73983 9.24856L8.47179 9.5166L8.46973 9.51867L8.47179 9.52073L9.99962 11.0486L11.5285 9.5197L11.5295 9.51867L11.5285 9.51764Z" fill="white"/>
</g>
<defs>
<clipPath id="clip0_8909_56018">
<rect width="20" height="20" fill="white"/>
</clipPath>
</defs>
</svg>
